src/assets/images/donate.svg

<svg height="768pt" viewBox="0 0 960 768" width="960pt" xmlns="http://www.w3.org/2000/svg"><path d="m385.88 158.92c18.67-7.43 40.04-7.66 58.9-.77 13.69 4.9 25.84 13.66 35.22 24.72 10.57-12.52 24.78-22 40.58-26.46 17.73-5.13 37.17-4.19 54.26 2.79 18.56 7.48 34.17 21.93 43.09 39.83 6.6 13.13 9.54 28.04 8.58 42.7-.94 17.86-7.2 35.12-16.41 50.35-10.3 17.12-23.95 31.92-38.24 45.77-12.98 12.42-26.57 24.2-40.71 35.28-15.45 11.89-30.84 23.84-46.31 35.7-3.2 2.71-7.98 1.92-10.86-.86-21.8-17.19-44.38-33.43-65.43-51.56-17.4-15.19-34.39-31.08-48.5-49.45-12.97-16.91-23.11-36.61-25.87-57.96-2.51-17.67.38-36.18 8.9-51.93 9.18-17.24 24.61-31.03 42.8-38.15m-8.12 21.82c-14.88 10.29-25.32 26.78-28.12 44.67-2.7 16.84 1.14 34.22 8.55 49.42 10.01 20.44 25.67 37.39 41.93 53.04 24.75 23.93 52.78 44.02 79.88 65.13 35.11-27.19 71.68-53.28 100.88-87.09 11.76-13.82 22.03-29.4 27.07-46.99 3.9-13.65 4.63-28.44.44-42.11-5-16.86-16.89-31.51-32.33-39.91-12.7-7.01-27.72-9.73-42.07-7.57-18.21 2.51-35.11 12.98-45.54 28.1-1.64 2.28-3.05 5.15-5.96 6-3.47 1.24-7.5-.4-9.28-3.58-10.37-16.35-27.99-27.92-47.21-30.52-16.76-2.55-34.39 1.67-48.24 11.41z"/><path d="m219.56 218.56c3.18-8.45 12.22-14.15 21.21-13.41 9.23.48 17.58 7.67 19.41 16.74 8.18 37.13 16.53 74.23 24.69 111.37 1.53 9.53 4.9 19.1 11.52 26.33 4.84 5.23 9.63 10.52 14.53 15.7 2.91-6.2 7.79-11.47 14.05-14.36 10.91-5.35 25.06-3.26 33.74 5.34 23.36 23.32 46.67 46.67 70.02 70.01 6.09 6.24 12.68 12.06 17.84 19.14 15.53 20.67 21.31 48.3 15.23 73.44-6.61 26.76-13.1 53.55-19.79 80.28-1.2 5.81-9.56 7.72-13.22 3.09-2.97-3.06-1.73-7.47-.73-11.07 6.33-25.65 12.67-51.29 18.92-76.96 5.36-23.45-1.95-49.24-18.71-66.47-26.46-26.55-53-53.01-79.48-79.53-5.75-6.68-17.49-6.25-22.4 1.15-3.31 4.98-1.03 11.5 2.62 15.62 15.99 17.35 31.87 34.8 47.92 52.1 2.57 2.44 4.91 5.83 3.77 9.56-1.16 5.52-9.01 7.63-12.8 3.45-27.93-30.06-55.64-60.35-83.42-90.56-8.24-9.22-12.82-21.16-14.78-33.25-8.07-36.63-16.3-73.21-24.36-109.84-.35-2.53-1.87-5.05-4.5-5.68-4.15-1.27-8.28 3.01-7.19 7.14 5.51 51.73 11.03 103.46 16.55 155.19.72 7.52 3.32 14.88 7.63 21.09 2.92 4.33 6.82 7.85 10.47 11.53 9.83 9.84 19.67 19.66 29.5 29.5 6.11 6.22 12.66 12.1 17.75 19.23 15.62 21.03 21.01 49.17 14.39 74.5-6.25 23.46-12.41 46.95-18.73 70.39-1.17 4.94-7.76 7.19-11.77 4.16-2.97-1.95-3.95-5.86-2.88-9.15 6.25-23.61 12.59-47.21 18.77-70.84 5.7-23.44-1.36-49.39-18-66.81-12.93-13.08-25.99-26.01-38.97-39.03-3.97-4.04-8.2-7.85-11.61-12.39-6.47-8.46-10.56-18.69-11.79-29.26-5.42-50.66-10.81-101.33-16.22-151.99-.63-5.13-1.29-10.56.82-15.45z"/><path d="m699.82 221.88c1.98-10.04 12.02-17.6 22.22-16.73 11.42.44 20.99 11.39 19.81 22.79-5.45 52.35-11.16 104.68-16.68 157.03-1.35 13.53-7.42 26.53-17.02 36.16-14.99 15.02-30.03 29.98-44.99 45.03-16.98 17.44-24.25 43.65-18.49 67.33 6.18 23.62 12.52 47.2 18.76 70.81 1.07 3.29.11 7.22-2.86 9.18-4.07 3.05-10.7.74-11.82-4.27-6.22-23.1-12.28-46.24-18.45-69.35-4.8-17.92-3.84-37.32 2.82-54.63 4.64-12.29 12.15-23.42 21.58-32.54 14.01-13.98 27.99-28 42.01-41.99 7.24-7.12 11.93-16.75 13-26.85 5.56-51.99 11.1-103.97 16.64-155.96.7-3.13-1.27-6.56-4.47-7.2-3.26-.81-6.61 1.73-7.03 4.99-8.75 39.6-17.69 79.16-26.31 118.79-2.37 8.94-6.48 17.5-12.55 24.52-27.75 30.25-55.53 60.46-83.38 90.61-2.96 3.68-9.2 3.54-11.99-.25-2.49-3.18-1.9-8 1.02-10.69 16.35-17.67 32.55-35.48 48.89-53.16 3.04-3.3 5.24-7.84 4.57-12.41-1.1-5.95-7.36-9.72-13.1-9.67-4.1-.08-7.99 1.86-10.78 4.77-26.49 26.53-53.03 52.99-79.49 79.54-17.77 18.2-24.75 45.97-17.77 70.43 6.28 25.71 12.7 51.38 18.93 77.1 1.43 4.76-2.88 10.02-7.81 9.58-3.66-.06-6.77-3.02-7.35-6.57-6.58-26.76-13.18-53.51-19.72-80.28-5.77-24.9.08-52.14 15.42-72.56 4.58-6.33 10.37-11.62 15.84-17.15 23.49-23.52 47.02-46.99 70.5-70.52 5.66-6.1 13.84-9.96 22.23-9.7 11.43-.35 22.45 6.82 27.08 17.23 4.75-5 9.36-10.13 14.06-15.18 5.15-5.46 8.52-12.41 10.45-19.62 8.55-39.57 17.55-79.06 26.23-118.61z"/></svg>

<?xml version="1.0" encoding="UTF-8" ?>
<!DOCTYPE svg PUBLIC "-//W3C//DTD SVG 1.1//EN" "http://www.w3.org/Graphics/SVG/1.1/DTD/svg11.dtd">
<svg width="960pt" height="768pt" viewBox="0 0 960 768" version="1.1" xmlns="http://www.w3.org/2000/svg">
<g id="#ffffffff">
</g>
<g id="#000000ff">
<path fill="#000000" opacity="1.00" d=" M 385.88 158.92 C 404.55 151.49 425.92 151.26 444.78 158.15 C 458.47 163.05 470.62 171.81 480.00 182.87 C 490.57 170.35 504.78 160.87 520.58 156.41 C 538.31 151.28 557.75 152.22 574.84 159.20 C 593.40 166.68 609.01 181.13 617.93 199.03 C 624.53 212.16 627.47 227.07 626.51 241.73 C 625.57 259.59 619.31 276.85 610.10 292.08 C 599.80 309.20 586.15 324.00 571.86 337.85 C 558.88 350.27 545.29 362.05 531.15 373.13 C 515.70 385.02 500.31 396.97 484.84 408.83 C 481.64 411.54 476.86 410.75 473.98 407.97 C 452.18 390.78 429.60 374.54 408.55 356.41 C 391.15 341.22 374.16 325.33 360.05 306.96 C 347.08 290.05 336.94 270.35 334.18 249.00 C 331.67 231.33 334.56 212.82 343.08 197.07 C 352.26 179.83 367.69 166.04 385.88 158.92 M 377.76 180.74 C 362.88 191.03 352.44 207.52 349.64 225.41 C 346.94 242.25 350.78 259.63 358.19 274.83 C 368.20 295.27 383.86 312.22 400.12 327.87 C 424.87 351.80 452.90 371.89 480.00 393.00 C 515.11 365.81 551.68 339.72 580.88 305.91 C 592.64 292.09 602.91 276.51 607.95 258.92 C 611.85 245.27 612.58 230.48 608.39 216.81 C 603.39 199.95 591.50 185.30 576.06 176.90 C 563.36 169.89 548.34 167.17 533.99 169.33 C 515.78 171.84 498.88 182.31 488.45 197.43 C 486.81 199.71 485.40 202.58 482.49 203.43 C 479.02 204.67 474.99 203.03 473.21 199.85 C 462.84 183.50 445.22 171.93 426.00 169.33 C 409.24 166.78 391.61 171.00 377.76 180.74 Z" />
<path fill="#000000" opacity="1.00" d=" M 219.56 218.56 C 222.74 210.11 231.78 204.41 240.77 205.15 C 250.00 205.63 258.35 212.82 260.18 221.89 C 268.36 259.02 276.71 296.12 284.87 333.26 C 286.40 342.79 289.77 352.36 296.39 359.59 C 301.23 364.82 306.02 370.11 310.92 375.29 C 313.83 369.09 318.71 363.82 324.97 360.93 C 335.88 355.58 350.03 357.67 358.71 366.27 C 382.07 389.59 405.38 412.94 428.73 436.28 C 434.82 442.52 441.41 448.34 446.57 455.42 C 462.10 476.09 467.88 503.72 461.80 528.86 C 455.19 555.62 448.70 582.41 442.01 609.14 C 440.81 614.95 432.45 616.86 428.79 612.23 C 425.82 609.17 427.06 604.76 428.06 601.16 C 434.39 575.51 440.73 549.87 446.98 524.20 C 452.34 500.75 445.03 474.96 428.27 457.73 C 401.81 431.18 375.27 404.72 348.79 378.20 C 343.04 371.52 331.30 371.95 326.39 379.35 C 323.08 384.33 325.36 390.85 329.01 394.97 C 345.00 412.32 360.88 429.77 376.93 447.07 C 379.50 449.51 381.84 452.90 380.70 456.63 C 379.54 462.15 371.69 464.26 367.90 460.08 C 339.97 430.02 312.26 399.73 284.48 369.52 C 276.24 360.30 271.66 348.36 269.70 336.27 C 261.63 299.64 253.40 263.06 245.34 226.43 C 244.99 223.90 243.47 221.38 240.84 220.75 C 236.69 219.48 232.56 223.76 233.65 227.89 C 239.16 279.62 244.68 331.35 250.20 383.08 C 250.92 390.60 253.52 397.96 257.83 404.17 C 260.75 408.50 264.65 412.02 268.30 415.70 C 278.13 425.54 287.97 435.36 297.80 445.20 C 303.91 451.42 310.46 457.30 315.55 464.43 C 331.17 485.46 336.56 513.60 329.94 538.93 C 323.69 562.39 317.53 585.88 311.21 609.32 C 310.04 614.26 303.45 616.51 299.44 613.48 C 296.47 611.53 295.49 607.62 296.56 604.33 C 302.81 580.72 309.15 557.12 315.33 533.49 C 321.03 510.05 313.97 484.10 297.33 466.68 C 284.40 453.60 271.34 440.67 258.36 427.65 C 254.39 423.61 250.16 419.80 246.75 415.26 C 240.28 406.80 236.19 396.57 234.96 386.00 C 229.54 335.34 224.15 284.67 218.74 234.01 C 218.11 228.88 217.45 223.45 219.56 218.56 Z" />
<path fill="#000000" opacity="1.00" d=" M 699.82 221.88 C 701.80 211.84 711.84 204.28 722.04 205.15 C 733.46 205.59 743.03 216.54 741.85 227.94 C 736.40 280.29 730.69 332.62 725.17 384.97 C 723.82 398.50 717.75 411.50 708.15 421.13 C 693.16 436.15 678.12 451.11 663.16 466.16 C 646.18 483.60 638.91 509.81 644.67 533.49 C 650.85 557.11 657.19 580.69 663.43 604.30 C 664.50 607.59 663.54 611.52 660.57 613.48 C 656.50 616.53 649.87 614.22 648.75 609.21 C 642.53 586.11 636.47 562.97 630.30 539.86 C 625.50 521.94 626.46 502.54 633.12 485.23 C 637.76 472.94 645.27 461.81 654.70 452.69 C 668.71 438.71 682.69 424.69 696.71 410.70 C 703.95 403.58 708.64 393.95 709.71 383.85 C 715.27 331.86 720.81 279.88 726.35 227.89 C 727.05 224.76 725.08 221.33 721.88 220.69 C 718.62 219.88 715.27 222.42 714.85 225.68 C 706.10 265.28 697.16 304.84 688.54 344.47 C 686.17 353.41 682.06 361.97 675.99 368.99 C 648.24 399.24 620.46 429.45 592.61 459.60 C 589.65 463.28 583.41 463.14 580.62 459.35 C 578.13 456.17 578.72 451.35 581.64 448.66 C 597.99 430.99 614.19 413.18 630.53 395.50 C 633.57 392.20 635.77 387.66 635.10 383.09 C 634.00 377.14 627.74 373.37 622.00 373.42 C 617.90 373.34 614.01 375.28 611.22 378.19 C 584.73 404.72 558.19 431.18 531.73 457.73 C 513.96 475.93 506.98 503.70 513.96 528.16 C 520.24 553.87 526.66 579.54 532.89 605.26 C 534.32 610.02 530.01 615.28 525.08 614.84 C 521.42 614.78 518.31 611.82 517.73 608.27 C 511.15 581.51 504.55 554.76 498.01 527.99 C 492.24 503.09 498.09 475.85 513.43 455.43 C 518.01 449.10 523.80 443.81 529.27 438.28 C 552.76 414.76 576.29 391.29 599.77 367.76 C 605.43 361.66 613.61 357.80 622.00 358.06 C 633.43 357.71 644.45 364.88 649.08 375.29 C 653.83 370.29 658.44 365.16 663.14 360.11 C 668.29 354.65 671.66 347.70 673.59 340.49 C 682.14 300.92 691.14 261.43 699.82 221.88 Z" />
</g>
</svg>
